icons/4_Outdated/PayPal v1.svg

<svg xmlns="http://www.w3.org/2000/svg" width="1024" height="1024" fill="none">
   <g clip-path="url(#a)">
      <path fill="#728DBE" d="M512 1024c282.77 0 512-229.23 512-512S794.77 0 512 0 0 229.23 0 512s229.23 512 512 512Z"/>
      <path fill="#fff" d="M403.4 768h-66.2c-14.2 0-23.2-11.3-20-25.2l3.2-14.4h44.2c14.2 0 28.5-11.4 31.6-25.2l22.7-98c3.2-13.8 17.4-25.2 31.6-25.2h18.8c80.8 0 143.7-16.6 188.6-49.9 44.9-33.3 67.4-76.8 67.4-130.9 0-24-4.2-43.8-12.5-59.5 0-.3-.3-.7-.3-1l2.9 1.6c16 9.9 28.2 22.7 36.5 38.7 8.6 16 12.8 35.8 12.8 59.5 0 54.1-22.4 97.6-67.5 130.9-44.8 33-107.8 49.6-188.5 49.6h-19.2c-14.1 0-28.5 11.2-31.7 25.3L435 742.7c-3.2 13.8-17.3 25-31.4 25l-.2.3Zm-57.1-57.5H280c-14.1 0-23.1-11.3-20-25.2l93.3-404.1c3.2-13.9 17.4-25.2 31.6-25.2h137.9c29.8 0 55.7 2.1 77.8 6.2 22.1 4 41 11.1 57.3 21.1 15.7 9.9 28.2 22.9 36.2 38.8 8.3 16 12.5 35.8 12.5 59.7 0 54.1-22.4 97.6-67.5 130.5-44.8 33.3-107.9 49.6-188.5 49.6h-18.8c-14.1 0-28.3 11.2-31.5 24.9l-22.6 97.9c-3.2 13.8-17.4 25-31.7 25l.3.8ZM505.1 340h-21.6c-14.2 0-28.4 11.3-31.6 25.1l-19.8 85.8c-3.2 13.8 5.8 25.2 19.8 25.2h16.3c35.5 0 63.4-7.3 83.2-21.8 19.8-14.6 29.8-35.3 29.8-62.1 0-17.7-6.4-30.8-19.2-39.3-12.8-8.6-32-12.9-57.3-12.9h.4Z"/>
   </g>
   <defs>
      <clipPath id="a">
         <path fill="#fff" d="M0 0h1024v1024H0z"/>
      </clipPath>
   </defs>
</svg>

<svg width="1024" height="1024" viewBox="0 0 1024 1024" fill="none" xmlns="http://www.w3.org/2000/svg">
<g clip-path="url(#clip0_3_632)">
<path d="M512 1024C794.77 1024 1024 794.77 1024 512C1024 229.23 794.77 0 512 0C229.23 0 0 229.23 0 512C0 794.77 229.23 1024 512 1024Z" fill="#728DBE"/>
<path d="M403.4 768H337.2C323 768 314 756.7 317.2 742.8L320.4 728.4H364.6C378.8 728.4 393.1 717 396.2 703.2L418.9 605.2C422.1 591.4 436.3 580 450.5 580H469.3C550.1 580 613 563.4 657.9 530.1C702.8 496.8 725.3 453.3 725.3 399.2C725.3 375.2 721.1 355.4 712.8 339.7C712.8 339.4 712.5 339 712.5 338.7L715.4 340.3C731.4 350.2 743.6 363 751.9 379C760.5 395 764.7 414.8 764.7 438.5C764.7 492.6 742.3 536.1 697.2 569.4C652.4 602.4 589.4 619 508.7 619H489.5C475.4 619 461 630.2 457.8 644.3L435 742.7C431.8 756.5 417.7 767.7 403.6 767.7L403.4 768ZM346.3 710.5H280C265.9 710.5 256.9 699.2 260 685.3L353.3 281.2C356.5 267.3 370.7 256 384.9 256H522.8C552.6 256 578.5 258.1 600.6 262.2C622.7 266.2 641.6 273.3 657.9 283.3C673.6 293.2 686.1 306.2 694.1 322.1C702.4 338.1 706.6 357.9 706.6 381.8C706.6 435.9 684.2 479.4 639.1 512.3C594.3 545.6 531.2 561.9 450.6 561.9H431.8C417.7 561.9 403.5 573.1 400.3 586.8L377.7 684.7C374.5 698.5 360.3 709.7 346 709.7L346.3 710.5ZM505.1 340H483.5C469.3 340 455.1 351.3 451.9 365.1L432.1 450.9C428.9 464.7 437.9 476.1 451.9 476.1H468.2C503.7 476.1 531.6 468.8 551.4 454.3C571.2 439.7 581.2 419 581.2 392.2C581.2 374.5 574.8 361.4 562 352.9C549.2 344.3 530 340 504.7 340H505.1Z" fill="white"/>
</g>
<defs>
<clipPath id="clip0_3_632">
<rect width="1024" height="1024" fill="white"/>
</clipPath>
</defs>
</svg>
